packages/tokens/icons/scalableBusinessModel/size16Px.svg

<svg viewBox="0 0 17 16" fill="none" xmlns="http://www.w3.org/2000/svg" width="1em" height="1em"><path d="M8.94117 6.5V5.5H10.1513L6.5882 1.5L3.02521 5.5H4.23529L4.2353 13.5C4.2353 14.0523 4.68301 14.5 5.2353 14.5H8.14283C8.69511 14.5 9.14283 14.0523 9.14283 13.5V13.5" stroke="currentColor" stroke-linecap="round" stroke-linejoin="round"/><path d="M7.52939 12.2426L11.5225 8" stroke="currentColor" stroke-linecap="round"/><path d="M8.44119 8.5C8.44119 8.80513 8.21555 9 8.00001 9C7.78448 9 7.55884 8.80513 7.55884 8.5C7.55884 8.19487 7.78448 8 8.00001 8C8.21555 8 8.44119 8.19487 8.44119 8.5Z" stroke="currentColor"/><mask id="path-4-inside-1_2_63030" fill="currentColor"><ellipse cx="11.2941" cy="12" rx="0.941176" ry="1"/></mask><path d="M11.2353 12C11.2353 12.0195 11.2285 12.0249 11.2315 12.0217C11.2331 12.02 11.2388 12.0146 11.2506 12.0093C11.2632 12.0036 11.2788 12 11.2941 12V14C12.4225 14 13.2353 13.0466 13.2353 12H11.2353ZM11.2941 12C11.3094 12 11.3251 12.0036 11.3377 12.0093C11.3495 12.0146 11.3552 12.02 11.3568 12.0217C11.3598 12.0249 11.353 12.0195 11.353 12H9.35297C9.35297 13.0466 10.1658 14 11.2941 14V12ZM11.353 12C11.353 11.9805 11.3598 11.9751 11.3568 11.9783C11.3552 11.98 11.3495 11.9854 11.3377 11.9907C11.3251 11.9964 11.3094 12 11.2941 12V10C10.1658 10 9.35297 10.9534 9.35297 12H11.353ZM11.2941 12C11.2788 12 11.2632 11.9964 11.2506 11.9907C11.2388 11.9854 11.2331 11.98 11.2315 11.9783C11.2285 11.9751 11.2353 11.9805 11.2353 12H13.2353C13.2353 10.9534 12.4225 10 11.2941 10V12Z" fill="currentColor" mask="url(#path-4-inside-1_2_63030)"/></svg>

<svg xmlns="http://www.w3.org/2000/svg" fill="none" viewBox="0 0 17 16" width="1em" height="1em"><path stroke="currentColor" stroke-linecap="round" stroke-linejoin="round" d="M8.941 6.5v-1h1.21l-3.563-4-3.563 4h1.21v8a1 1 0 0 0 1 1h2.908a1 1 0 0 0 1-1v0"/><path stroke="currentColor" stroke-linecap="round" d="M7.53 12.243 11.522 8"/><path stroke="currentColor" d="M8.441 8.5c0 .305-.225.5-.441.5s-.441-.195-.441-.5S7.784 8 8 8s.441.195.441.5Z"/><mask id="iconsScalableBusinessModelSize16Px__a" fill="#fff"><ellipse cx="11.294" cy="12" rx=".941" ry="1"/></mask><path fill="currentColor" d="M11.235 12c0 .02-.006.025-.003.022a.06.06 0 0 1 .019-.013.109.109 0 0 1 .043-.009v2c1.128 0 1.941-.953 1.941-2h-2Zm.06 0c.014 0 .03.004.043.01a.06.06 0 0 1 .019.012c.003.003-.004-.002-.004-.022h-2c0 1.047.813 2 1.941 2v-2Zm.058 0c0-.02.007-.025.004-.022a.06.06 0 0 1-.02.013.109.109 0 0 1-.043.009v-2c-1.128 0-1.941.953-1.941 2h2Zm-.059 0a.109.109 0 0 1-.043-.01.06.06 0 0 1-.02-.012c-.002-.003.004.002.004.022h2c0-1.047-.813-2-1.94-2v2Z" mask="url(#iconsScalableBusinessModelSize16Px__a)"/></svg>
